X: 23
T: Finnegan's Wake (Ellen's version)
M:C|
K:D
L:1/8
|: "D" F3 F F2 E2 | F2 A2 B2 A2 | d3 d d2 A2 | B2 A2 "A" E2 |
"D" F3 F F2 E2 | F2 A2 B2 A2 | "G" d3 d d2 A2 | "A" B2 c2 "D" d4 :|
|: "D" d3 d d2 e2 | d2 c2 B2 A2 | d3 d d2 e2 | d2 e2 f2 e2 |
d3 d d2 e2 | d2 c2 B2 A2 | "G" B3 B B2 A2 | "A" B2 c2 "D" d4 :|

% ...and a simplified version for contra dance.  Only change is that
% there are no repeats;  first endings have been zapped.
% I think the 'contra3.abc' version (q.v.) is the one that ought to be used.
